svgs/solid/square-share-nodes.svg

<svg xmlns="http://www.w3.org/2000/svg" viewBox="0 0 448 512"><!-- Font Awesome Pro 6.0.0-alpha2 by @fontawesome - https://fontawesome.com License - https://fontawesome.com/license (Commercial License) --><path d="M384 32H64C28.654 32 0 60.654 0 96V416C0 451.346 28.654 480 64 480H384C419.348 480 448 451.346 448 416V96C448 60.654 419.348 32 384 32ZM192 256C192 257.684 191.631 259.266 191.504 260.916L277.922 304.125C289.193 294.211 303.809 288 320 288C355.348 288 384 316.654 384 352S355.348 416 320 416C284.654 416 256 387.346 256 352C256 350.316 256.369 348.734 256.496 347.084L170.078 303.875C158.807 313.789 144.191 320 128 320C92.654 320 64 291.346 64 256S92.654 192 128 192C144.191 192 158.807 198.211 170.078 208.125L256.496 164.916C256.369 163.266 256 161.684 256 160C256 124.654 284.654 96 320 96C355.348 96 384 124.654 384 160S355.348 224 320 224C303.809 224 289.193 217.789 277.922 207.875L191.504 251.084C191.631 252.734 192 254.316 192 256Z"/></svg>

<svg xmlns="http://www.w3.org/2000/svg" viewBox="0 0 448 512"><!--! Font Awesome Pro 6.4.0 by @fontawesome - https://fontawesome.com License - https://fontawesome.com/license (Commercial License) Copyright 2023 Fonticons, Inc. --><path d="M64 32C28.7 32 0 60.7 0 96V416c0 35.3 28.7 64 64 64H384c35.3 0 64-28.7 64-64V96c0-35.3-28.7-64-64-64H64zM384 160c0 35.3-28.7 64-64 64c-15.4 0-29.5-5.4-40.6-14.5L194.1 256l85.3 46.5c11-9.1 25.2-14.5 40.6-14.5c35.3 0 64 28.7 64 64s-28.7 64-64 64s-64-28.7-64-64c0-2.5 .1-4.9 .4-7.3L174.5 300c-11.7 12.3-28.2 20-46.5 20c-35.3 0-64-28.7-64-64s28.7-64 64-64c18.3 0 34.8 7.7 46.5 20l81.9-44.7c-.3-2.4-.4-4.9-.4-7.3c0-35.3 28.7-64 64-64s64 28.7 64 64z"/></svg>
